sources/design/Outline/ി.svg

<svg:svg xmlns:cc="http://creativecommons.org/ns#" xmlns:dc="http://purl.org/dc/elements/1.1/" xmlns:inkscape="http://www.inkscape.org/namespaces/inkscape" xmlns:rdf="http://www.w3.org/1999/02/22-rdf-syntax-ns#" xmlns:sodipodi="http://sodipodi.sourceforge.net/DTD/sodipodi-0.dtd" xmlns:svg="http://www.w3.org/2000/svg" xml:space="preserve" width="1000" height="1000" version="1.1" style="clip-rule:evenodd;fill-rule:evenodd;image-rendering:optimizeQuality;shape-rendering:geometricPrecision;text-rendering:geometricPrecision" viewBox="0 0 1000 1000" id="svg10" sodipodi:docname="ി.svg" inkscape:version="1.1.1 (3bf5ae0d25, 2021-09-20)"><svg:metadata id="metadata14"><rdf:RDF><cc:Work rdf:about=""><dc:format>image/svg+xml</dc:format><dc:type rdf:resource="http://purl.org/dc/dcmitype/StillImage" /></cc:Work></rdf:RDF></svg:metadata><sodipodi:namedview pagecolor="#ffffff" bordercolor="#666666" borderopacity="1" objecttolerance="10" gridtolerance="10" guidetolerance="10" inkscape:pageopacity="0" inkscape:pageshadow="2" inkscape:window-width="1920" inkscape:window-height="1009" id="namedview12" showgrid="false" inkscape:zoom="0.79682018" inkscape:cx="418.5386" inkscape:cy="436.73593" inkscape:window-x="0" inkscape:window-y="0" inkscape:window-maximized="1" inkscape:current-layer="svg10" showguides="true" inkscape:guide-bbox="true" inkscape:document-rotation="0" inkscape:snap-object-midpoints="false" inkscape:snap-page="false" inkscape:pagecheckerboard="0"><sodipodi:guide position="0,1000" orientation="0,1" id="guide16" inkscape:label="" inkscape:locked="true" inkscape:color="rgb(0,0,255)" /><sodipodi:guide position="1763.3122,2036.1693" orientation="1000,0" id="guide18" /><sodipodi:guide position="0,200" orientation="0,1" id="guide20" inkscape:label="base" inkscape:locked="true" inkscape:color="rgb(0,0,255)" /><inkscape:grid type="xygrid" id="grid24" originx="-473.37552" originy="-489.69235" /><sodipodi:guide position="0,0" orientation="0,1" id="guide34" inkscape:label="bottom" inkscape:locked="true" inkscape:color="rgb(0,0,255)" /><sodipodi:guide position="225.05109,1693.3186" orientation="0,1" id="guide44" inkscape:label="" inkscape:locked="false" inkscape:color="rgb(0,0,255)" /><sodipodi:guide position="0,900" orientation="0,1" id="guide46" inkscape:label="" inkscape:locked="true" inkscape:color="rgb(0,0,255)" /><sodipodi:guide position="183.3723,556.89775" orientation="-1,0" id="guide841" inkscape:label="width" inkscape:locked="false" inkscape:color="rgb(0,0,255)" /><sodipodi:guide position="0,1000" orientation="0,1000" id="guide860" /><sodipodi:guide position="1000,1000" orientation="1000,0" id="guide862" /><sodipodi:guide position="1000,0" orientation="0,-1000" id="guide864" /><sodipodi:guide position="0,0" orientation="-1000,0" id="guide866" /></sodipodi:namedview>
 <svg:defs id="defs4"><inkscape:path-effect effect="fillet_chamfer" id="path-effect855" is_visible="true" lpeversion="1" satellites_param="F,0,0,1,0,10.935747,0,1 @ F,0,0,1,0,0,0,1 @ F,0,0,1,0,0,0,1 @ F,0,0,1,0,0,0,1 @ F,0,0,1,0,0,0,1 @ F,0,0,1,0,18.933987,0,1 @ F,0,0,1,0,19.807469,0,1 @ F,0,0,1,0,0,0,1 @ F,0,0,1,0,0,0,1 @ F,0,0,1,0,0,0,1 @ F,0,0,1,0,0,0,1 @ F,0,0,1,0,0,0,1 @ F,0,0,1,0,0,0,1 @ F,0,0,1,0,14.684441,0,1" unit="px" method="auto" mode="F" radius="0" chamfer_steps="1" flexible="false" use_knot_distance="true" apply_no_radius="true" apply_with_radius="true" only_selected="true" hide_knots="false" /><inkscape:path-effect effect="spiro" id="path-effect858" is_visible="true" lpeversion="1" /><inkscape:path-effect effect="spiro" id="path-effect854" is_visible="true" lpeversion="1" />
  <svg:style type="text/css" id="style2">
   
    .fil0 {fill:#EF7F1A;fill-rule:nonzero}
   
  </svg:style>
 <inkscape:path-effect effect="spiro" id="path-effect1214" is_visible="true" lpeversion="1" /><inkscape:path-effect effect="spiro" id="path-effect1195" is_visible="true" lpeversion="1" /><inkscape:path-effect effect="spiro" id="path-effect992" is_visible="true" lpeversion="1" /><inkscape:path-effect effect="spiro" id="path-effect287" is_visible="true" lpeversion="1" /><inkscape:path-effect effect="spiro" id="path-effect1032" is_visible="true" lpeversion="1" /><inkscape:path-effect effect="spiro" id="path-effect1218" is_visible="true" lpeversion="1" /><inkscape:path-effect effect="spiro" id="path-effect309" is_visible="true" lpeversion="1" /><inkscape:path-effect effect="spiro" id="path-effect1525" is_visible="true" lpeversion="1" /><inkscape:path-effect effect="spiro" id="path-effect1343" is_visible="true" lpeversion="1" /></svg:defs>
 
<svg:g id="path979-0-6-9"><svg:path style="color:#000000;clip-rule:nonzero;fill:#1a5fb4;fill-rule:nonzero;stroke-linecap:round;stroke-linejoin:round;-inkscape-stroke:none;paint-order:fill stroke markers;shape-rendering:auto" d="M -177.7168,-107.36523 C -216.77737000000002,-107.39263 -255.85079000000002,-101.63591 -293.30859,-90.054687 C -314.28736,-83.568462 -324.54226,-69.103834 -325.13867,-47.912109 L -328.81444999999997,82.708984 C -329.11458,93.37309400000001 -324.92938,109.44423 -310.24218999999994,117.7168 C -295.55499999999995,125.98937000000001 -280.2321299999999,121.4556 -271.24999999999994,115.99023000000001 C -258.69617999999997,108.3516 -245.66495999999995,101.48947000000001 -232.26561999999996,95.46289100000001 C -201.40027999999995,81.58066600000001 -169.01171999999997,72.50981700000001 -137.11132999999995,71.28515600000001 C -105.39165999999994,70.06743300000001 -73.56908299999995,76.96261400000002 -47.97656199999996,92.38085900000002 C -15.908597,111.70024 8.7742219,145.77621 25.974609,184.0957 C 59.297844,258.33412 66.254377,344.43809 62.390625,430.2832 C 58.685524,512.60338 45.788053,595.24366 32.037109,678.57227 C 22.834661,734.33769 13.340125,790.0553 3.5507813,845.7207 C 1.3203092,858.4038899999999 4.3944371,874.55009 15.794922000000001,885.22461 C 27.195407000000003,895.89913 43.527929,897.90708 56.041016,894.8359399999999 L 167.65039,867.44336 C 193.51004999999998,861.0965 209.40641,832.39167 202.13672,807.33789 C 189.74043,764.61612 182.31586,720.42398 180.08594,676.00391 C 174.97759,574.24569 197.66157,468.88999 202.78516,358.43555 C 207.61187,254.38122 194.65915,141.91067 132.28125,50.900391 C 92.177232,-7.6119665 34.32138,-52.165916 -30.580078,-78.662109 C -77.296917,-97.734384 -127.49606,-107.32996 -177.7168,-107.36523 M -177.77540000000002,-47.271483999999994 C -135.15294000000003,-47.22543399999999 -92.50984200000002,-39.13802299999999 -53.25782200000002,-23.113280999999994 C 1.3405068,-0.8233716 49.922822,36.865129 82.791016,84.820312 C 134.15701,159.76406 147.34548,258.73225 142.84961,355.6543 C 138.03988,459.34261 114.52034,566.66653 120.16016000000002,679.01172 C 122.41793000000001,723.9866499999999 129.54339000000002,768.67191 141.24414000000002,812.14453 L 67.03125,830.35937 C 75.272376,783.04935 83.417379,735.72343 91.236328,688.3418 C 105.03951,604.69664 118.42602,519.72113 122.33008,432.98047 C 126.41507,342.21986 119.78388,246.56883 80.712891,159.52539 C 60.280567,114.0057 29.632988,69.089843 -17.015625,40.986328 C -54.417252,18.453672 -97.645127,9.7265622 -139.41406,11.330078 C -181.00227,12.926656000000001 -220.67126000000002,24.46 -256.87695,40.744141 C -260.55785000000003,42.39969 -264.12727,44.286893 -267.75781,46.048828 L -265.46094,-35.617187 C -237.00015,-43.392958 -207.40143,-47.303494 -177.77539,-47.271484 L -177.77540000000002,-47.271483999999994" id="path24365" /></svg:g></svg:svg>

<svg:svg xmlns:cc="http://creativecommons.org/ns#" xmlns:dc="http://purl.org/dc/elements/1.1/" xmlns:inkscape="http://www.inkscape.org/namespaces/inkscape" xmlns:rdf="http://www.w3.org/1999/02/22-rdf-syntax-ns#" xmlns:sodipodi="http://sodipodi.sourceforge.net/DTD/sodipodi-0.dtd" xmlns:svg="http://www.w3.org/2000/svg" xml:space="preserve" width="1000" height="1000" version="1.1" style="clip-rule:evenodd;fill-rule:evenodd;image-rendering:optimizeQuality;shape-rendering:geometricPrecision;text-rendering:geometricPrecision" viewBox="0 0 1000 1000" id="svg10" sodipodi:docname="ി.svg" inkscape:version="1.1.1 (3bf5ae0d25, 2021-09-20)"><svg:metadata id="metadata14"><rdf:RDF><cc:Work rdf:about=""><dc:format>image/svg+xml</dc:format><dc:type rdf:resource="http://purl.org/dc/dcmitype/StillImage" /></cc:Work></rdf:RDF></svg:metadata><sodipodi:namedview pagecolor="#ffffff" bordercolor="#666666" borderopacity="1" objecttolerance="10" gridtolerance="10" guidetolerance="10" inkscape:pageopacity="0" inkscape:pageshadow="2" inkscape:window-width="1920" inkscape:window-height="1009" id="namedview12" showgrid="false" inkscape:zoom="0.79682018" inkscape:cx="418.5386" inkscape:cy="436.73593" inkscape:window-x="0" inkscape:window-y="0" inkscape:window-maximized="1" inkscape:current-layer="svg10" showguides="true" inkscape:guide-bbox="true" inkscape:document-rotation="0" inkscape:snap-object-midpoints="false" inkscape:snap-page="false" inkscape:pagecheckerboard="0"><sodipodi:guide position="0,1000" orientation="0,1" id="guide16" inkscape:label="" inkscape:locked="true" inkscape:color="rgb(0,0,255)" /><sodipodi:guide position="1763.3122,2036.1693" orientation="1000,0" id="guide18" /><sodipodi:guide position="0,200" orientation="0,1" id="guide20" inkscape:label="base" inkscape:locked="true" inkscape:color="rgb(0,0,255)" /><inkscape:grid type="xygrid" id="grid24" originx="-473.37552" originy="-489.69235" /><sodipodi:guide position="0,0" orientation="0,1" id="guide34" inkscape:label="bottom" inkscape:locked="true" inkscape:color="rgb(0,0,255)" /><sodipodi:guide position="225.05109,1693.3186" orientation="0,1" id="guide44" inkscape:label="" inkscape:locked="false" inkscape:color="rgb(0,0,255)" /><sodipodi:guide position="0,900" orientation="0,1" id="guide46" inkscape:label="" inkscape:locked="true" inkscape:color="rgb(0,0,255)" /><sodipodi:guide position="183.3723,556.89775" orientation="-1,0" id="guide841" inkscape:label="width" inkscape:locked="false" inkscape:color="rgb(0,0,255)" /><sodipodi:guide position="0,1000" orientation="0,1000" id="guide860" /><sodipodi:guide position="1000,1000" orientation="1000,0" id="guide862" /><sodipodi:guide position="1000,0" orientation="0,-1000" id="guide864" /><sodipodi:guide position="0,0" orientation="-1000,0" id="guide866" /></sodipodi:namedview>
 <svg:defs id="defs4"><inkscape:path-effect effect="fillet_chamfer" id="path-effect855" is_visible="true" lpeversion="1" satellites_param="F,0,0,1,0,10.935747,0,1 @ F,0,0,1,0,0,0,1 @ F,0,0,1,0,0,0,1 @ F,0,0,1,0,0,0,1 @ F,0,0,1,0,0,0,1 @ F,0,0,1,0,18.933987,0,1 @ F,0,0,1,0,19.807469,0,1 @ F,0,0,1,0,0,0,1 @ F,0,0,1,0,0,0,1 @ F,0,0,1,0,0,0,1 @ F,0,0,1,0,0,0,1 @ F,0,0,1,0,0,0,1 @ F,0,0,1,0,0,0,1 @ F,0,0,1,0,14.684441,0,1" unit="px" method="auto" mode="F" radius="0" chamfer_steps="1" flexible="false" use_knot_distance="true" apply_no_radius="true" apply_with_radius="true" only_selected="true" hide_knots="false" /><inkscape:path-effect effect="spiro" id="path-effect858" is_visible="true" lpeversion="1" /><inkscape:path-effect effect="spiro" id="path-effect854" is_visible="true" lpeversion="1" />
  <svg:style type="text/css" id="style2">
   
    .fil0 {fill:#EF7F1A;fill-rule:nonzero}
   
  </svg:style>
 <inkscape:path-effect effect="spiro" id="path-effect1214" is_visible="true" lpeversion="1" /><inkscape:path-effect effect="spiro" id="path-effect1195" is_visible="true" lpeversion="1" /><inkscape:path-effect effect="spiro" id="path-effect992" is_visible="true" lpeversion="1" /><inkscape:path-effect effect="spiro" id="path-effect287" is_visible="true" lpeversion="1" /><inkscape:path-effect effect="spiro" id="path-effect1032" is_visible="true" lpeversion="1" /><inkscape:path-effect effect="spiro" id="path-effect1218" is_visible="true" lpeversion="1" /><inkscape:path-effect effect="spiro" id="path-effect309" is_visible="true" lpeversion="1" /><inkscape:path-effect effect="spiro" id="path-effect1525" is_visible="true" lpeversion="1" /><inkscape:path-effect effect="spiro" id="path-effect1343" is_visible="true" lpeversion="1" /></svg:defs>
 
<svg:g id="path979-0-6-9"><svg:path style="color:#000000;clip-rule:nonzero;fill:#1a5fb4;fill-rule:nonzero;stroke-linecap:round;stroke-linejoin:round;-inkscape-stroke:none;shape-rendering:auto" d="m -177.7168,-107.36523 c -39.06057,-0.0274 -78.13399,5.72932 -115.59179,17.310543 -20.97877,6.486225 -31.23367,20.950853 -31.83008,42.142578 l -3.67578,130.621093 c -0.30013,10.66411 3.88507,26.735246 18.57226,35.007816 14.68719,8.27257 30.01006,3.7388 38.99219,-1.72657 12.55382,-7.63863 25.58504,-14.50076 38.98438,-20.527339 30.86534,-13.882225 63.2539,-22.953074 95.15429,-24.177735 31.71967,-1.217723 63.542247,5.677458 89.134768,21.095703 C -15.908597,111.70024 8.7742219,145.77621 25.974609,184.0957 59.297844,258.33412 66.254377,344.43809 62.390625,430.2832 58.685524,512.60338 45.788053,595.24366 32.037109,678.57227 22.834661,734.33769 13.340125,790.0553 3.5507813,845.7207 c -2.2304721,12.68319 0.8436558,28.82939 12.2441407,39.50391 11.400485,10.67452 27.733007,12.68247 40.246094,9.61133 L 167.65039,867.44336 c 25.85966,-6.34686 41.75602,-35.05169 34.48633,-60.10547 C 189.74043,764.61612 182.31586,720.42398 180.08594,676.00391 174.97759,574.24569 197.66157,468.88999 202.78516,358.43555 207.61187,254.38122 194.65915,141.91067 132.28125,50.900391 92.177232,-7.6119665 34.32138,-52.165916 -30.580078,-78.662109 -77.296917,-97.734384 -127.49606,-107.32996 -177.7168,-107.36523 Z m -0.0586,60.093746 c 42.62246,0.04605 85.265558,8.133461 124.517578,24.158203 C 1.3405068,-0.8233716 49.922822,36.865129 82.791016,84.820312 134.15701,159.76406 147.34548,258.73225 142.84961,355.6543 c -4.80973,103.68831 -28.32927,211.01223 -22.68945,323.35742 2.25777,44.97493 9.38323,89.66019 21.08398,133.13281 L 67.03125,830.35937 C 75.272376,783.04935 83.417379,735.72343 91.236328,688.3418 105.03951,604.69664 118.42602,519.72113 122.33008,432.98047 126.41507,342.21986 119.78388,246.56883 80.712891,159.52539 60.280567,114.0057 29.632988,69.089843 -17.015625,40.986328 -54.417252,18.453672 -97.645127,9.7265622 -139.41406,11.330078 c -41.58821,1.596578 -81.2572,13.129922 -117.46289,29.414063 -3.6809,1.655549 -7.25032,3.542752 -10.88086,5.304687 l 2.29687,-81.666015 c 28.46079,-7.775771 58.05951,-11.686307 87.68555,-11.654297 z" id="path24283" /></svg:g></svg:svg>
